; HEADER_BLOCK_START
; generated by OrcaSlicer 2.1.1 on 2024-10-20 at 10:36:58
; total layer number: 40
; filament_density: 1.27
; filament_diameter: 1.75
; max_z_height: 8.00
; HEADER_BLOCK_END

; THUMBNAIL_BLOCK_START

;
; THUMBNAIL_BLOCK_END

; THUMBNAIL_BLOCK_START

;
; THUMBNAIL_BLOCK_END

; external perimeters extrusion width = 0.42mm
; perimeters extrusion width = 0.45mm
; infill extrusion width = 0.45mm
; solid infill extrusion width = 0.42mm
; top infill extrusion width = 0.42mm
; first layer extrusion width = 0.50mm

; external perimeters extrusion width = 0.42mm
; perimeters extrusion width = 0.45mm
; infill extrusion width = 0.45mm
; solid infill extrusion width = 0.42mm
; top infill extrusion width = 0.42mm
; first layer extrusion width = 0.50mm

; EXECUTABLE_BLOCK_START
EXCLUDE_OBJECT_DEFINE NAME=3D_battery-fix.stl_id_0_copy_0 CENTER=110,116 POLYGON=[[100,111],[120,111],[120,121],[100,121],[100,111]]
EXCLUDE_OBJECT_DEFINE NAME=3D_battery-fix.stl_id_1_copy_0 CENTER=110,104 POLYGON=[[100,99],[120,99],[120,109],[100,109],[100,99]]
M73 P0 R7
M106 S0
M106 P2 S0
;TYPE:Custom
M140 S0
M104 S0 
START_PRINT EXTRUDER_TEMP=255 BED_TEMP=80
G90
G21
M83 ; use relative distances for extrusion
; filament start gcode
M106 S0
M106 P2 S0
;LAYER_CHANGE
;Z:0.2
;HEIGHT:0.2
;BEFORE_LAYER_CHANGE
;0.2
G92 E0

G1 E-.6 F2400
;_SET_FAN_SPEED_CHANGING_LAYER
SET_VELOCITY_LIMIT ACCEL=500 ACCEL_TO_DECEL=250
SET_VELOCITY_LIMIT SQUARE_CORNER_VELOCITY=9
EXCLUDE_OBJECT_START NAME=3D_battery-fix.stl_id_0_copy_0
G1 Z.2 F30000
G1 X118.686 Y117.43
G1 Z.2
G1 E.6 F2400
;TYPE:Inner wall
;WIDTH:0.499999
G1 F3600
G1 X118.686 Y119.686 E.08145
G1 X116.456 Y119.686 E.08051
;WIDTH:0.540461
G1 X116.205 Y119.666 E.00989
;WIDTH:0.580923
G1 X115.954 Y119.645 E.01069
;WIDTH:0.621385
G1 X115.703 Y119.625 E.0115
G1 X115.017 Y119.644 E.03136
;WIDTH:0.605659
G1 X114.468 Y119.633 E.02442
G1 X114.328 Y119.651 E.00627
;WIDTH:0.570439
G1 X114.189 Y119.668 E.00587
;WIDTH:0.535219
G1 X114.049 Y119.686 E.00548
;WIDTH:0.499999
G1 X106.26 Y119.686 E.28124
;WIDTH:0.540451
G1 X106.074 Y119.666 E.00733
;WIDTH:0.580903
G1 X105.889 Y119.645 E.00793
;WIDTH:0.621355
G1 X105.703 Y119.625 E.00853
G1 X105.017 Y119.644 E.03134
;WIDTH:0.605659
G1 X104.468 Y119.633 E.02442
G1 X104.328 Y119.651 E.00627
;WIDTH:0.570439
G1 X104.188 Y119.668 E.00588
;WIDTH:0.535219
G1 X104.048 Y119.686 E.00549
;WIDTH:0.499999
G1 X101.314 Y119.686 E.09872
G1 X101.314 Y117.328 E.08515
;WIDTH:0.537716
G1 X101.333 Y117.097 E.00906
;WIDTH:0.575432
G1 X101.352 Y116.865 E.00975
;WIDTH:0.613148
G1 X101.371 Y116.634 E.01044
G1 X101.357 Y116.093 E.02441
;WIDTH:0.613955
G1 X101.371 Y115.378 E.03223
G1 X101.352 Y115.23 E.00672
;WIDTH:0.57597
G1 X101.333 Y115.083 E.00628
;WIDTH:0.537985
G1 X101.314 Y114.935 E.00583
;WIDTH:0.499999
G1 X101.314 Y112.314 E.09462
G1 X103.706 Y112.314 E.08636
;WIDTH:0.540454
G1 X103.903 Y112.334 E.00778
;WIDTH:0.580908
G1 X104.1 Y112.355 E.00841
;WIDTH:0.621362
G1 X104.297 Y112.375 E.00905
G1 X104.983 Y112.356 E.03134
;WIDTH:0.605659
G1 X105.532 Y112.367 E.02442
G1 X105.672 Y112.349 E.00627
;WIDTH:0.570439
G1 X105.812 Y112.332 E.00588
;WIDTH:0.535219
G1 X105.952 Y112.314 E.00549
;WIDTH:0.499999
G1 X113.706 Y112.314 E.27998
;WIDTH:0.540454
G1 X113.903 Y112.334 E.00778
;WIDTH:0.580908
G1 X114.1 Y112.355 E.00841
;WIDTH:0.621362
G1 X114.297 Y112.375 E.00905
G1 X114.983 Y112.356 E.03134
;WIDTH:0.60566
G1 X115.532 Y112.367 E.02442
G1 X115.672 Y112.349 E.00627
;WIDTH:0.57044
G1 X115.812 Y112.332 E.00588
;WIDTH:0.53522
G1 X115.952 Y112.314 E.00549
;WIDTH:0.499999
G1 X118.686 Y112.314 E.09872
G1 X118.686 Y114.895 E.09318
;WIDTH:0.548498
G1 X118.662 Y115.244 E.01397
;WIDTH:0.596997
G1 X118.637 Y115.593 E.01531
G1 X118.643 Y116.141 E.02399
;WIDTH:0.584785
G1 X118.665 Y116.484 E.01472
;WIDTH:0.542392
G1 X118.686 Y116.827 E.01357
;WIDTH:0.499999
G1 X118.686 Y117.39 E.02032
;WIPE_START
G1 X118.686 Y119.39 E-.6
;WIPE_END
G1 Z.4 F30000
G1 X119.143 Y120.143 Z.4
G1 Z.2
G1 E.6 F2400
G1 F3600
G1 X100.857 Y120.143 E.66023
G1 X100.857 Y111.857 E.29917
G1 X119.143 Y111.857 E.66023
G1 X119.143 Y120.103 E.29772
G1 X119.6 Y120.6 F30000
;TYPE:Outer wall
G1 F3600
G1 X100.4 Y120.6 E.69323
M73 P1 R7
G1 X100.4 Y111.4 E.33217
G1 X119.6 Y111.4 E.69323
G1 X119.6 Y120.56 E.33073
;WIPE_START
G1 X117.6 Y120.564 E-.6
;WIPE_END
G1 Z.4 F30000
G1 X117.643 Y117.526 Z.4
G1 Z.2
G1 E.6 F2400
;TYPE:Inner wall
G1 F3600
G1 X117.605 Y117.605 E.00318
G1 X117.225 Y118.105 E.02267
G1 X116.86 Y118.43 E.01765
G1 X116.288 Y118.776 E.02413
;WIDTH:0.54156
G1 X116.09 Y118.866 E.00856
;WIDTH:0.583121
G1 X115.892 Y118.956 E.00928
;WIDTH:0.624681
G1 X115.694 Y119.046 E.00999
G1 X115.071 Y119.104 E.02879
;WIDTH:0.605659
G1 X114.53 Y119.077 E.02408
G1 X114.331 Y119.008 E.00935
;WIDTH:0.570439
G1 X114.132 Y118.939 E.00877
;WIDTH:0.535219
G1 X113.933 Y118.871 E.00818
;WIDTH:0.499999
G1 X113.49 Y118.662 E.01767
G1 X112.951 Y118.274 E.02399
G1 X112.525 Y117.798 E.02306
G1 X112.206 Y117.253 E.0228
G1 X112.036 Y116.761 E.01879
G1 X111.948 Y116.266 E.01817
G1 X111.954 Y115.706 E.0202
G1 X112.095 Y115.044 E.02442
G1 X112.367 Y114.441 E.02392
G1 X112.659 Y114.026 E.0183
G1 X113.118 Y113.587 E.02296
G1 X113.664 Y113.247 E.02322
;WIDTH:0.547235
G1 X114.129 Y113.04 E.02025
;WIDTH:0.584299
G1 X114.234 Y112.995 E.00489
;WIDTH:0.621362
G1 X114.339 Y112.95 E.00522
G1 X114.929 Y112.896 E.02709
;WIDTH:0.60566
G1 X115.47 Y112.923 E.02408
G1 X115.682 Y112.998 E.00998
;WIDTH:0.57044
G1 X115.894 Y113.072 E.00935
;WIDTH:0.53522
G1 X116.105 Y113.147 E.00873
;WIDTH:0.499999
G1 X116.696 Y113.452 E.024
G1 X117.148 Y113.817 E.02096
G1 X117.497 Y114.231 E.01955
G1 X117.807 Y114.776 E.02266
;WIDTH:0.548498
G1 X117.947 Y115.209 E.0182
;WIDTH:0.596997
G1 X118.088 Y115.643 E.01995
G1 X118.089 Y116.346 E.03079
;WIDTH:0.595817
G1 X117.991 Y116.673 E.01492
;WIDTH:0.547908
G1 X117.892 Y117.001 E.01363
;WIDTH:0.499999
G1 X117.66 Y117.49 E.01954
G1 X117.235 Y117.336 F30000
G1 F3600
G1 X117.233 Y117.339 E.00015
G1 X116.907 Y117.776 E.01966
G1 X116.607 Y118.049 E.01465
G1 X116.124 Y118.349 E.02053
G1 X115.605 Y118.535 E.01993
G1 X115.071 Y118.606 E.01945
G1 X114.64 Y118.579 E.01556
G1 X114.112 Y118.45 E.01965
G1 X113.743 Y118.281 E.01466
G1 X113.279 Y117.955 E.02045
G1 X112.912 Y117.556 E.01959
G1 X112.632 Y117.086 E.01974
G1 X112.475 Y116.62 E.01776
G1 X112.398 Y116.118 E.01833
G1 X112.424 Y115.608 E.01844
G1 X112.538 Y115.157 E.0168
G1 X112.775 Y114.648 E.02026
G1 X113.111 Y114.207 E.02004
G1 X113.543 Y113.841 E.02043
G1 X114.001 Y113.594 E.0188
G1 X114.414 Y113.462 E.01565
G1 X114.929 Y113.394 E.01876
G1 X115.36 Y113.421 E.01556
G1 X115.911 Y113.56 E.02055
G1 X116.418 Y113.815 E.02047
G1 X116.815 Y114.131 E.01832
G1 X117.106 Y114.469 E.01611
G1 X117.38 Y114.939 E.01965
G1 X117.514 Y115.322 E.01466
G1 X117.602 Y115.859 E.01965
G1 X117.591 Y116.265 E.01466
G1 X117.471 Y116.822 E.02055
G1 X117.252 Y117.299 E.01897
G1 X116.862 Y117.073 F30000
;TYPE:Outer wall
G1 F3600
G1 X116.541 Y117.494 E.0191
G1 X116.355 Y117.668 E.00918
G1 X115.961 Y117.922 E.01693
G1 X115.519 Y118.085 E.017
G1 X115.062 Y118.149 E.01666
G1 X114.74 Y118.133 E.01166
G1 X114.291 Y118.029 E.01665
G1 X113.995 Y117.899 E.01166
G1 X113.607 Y117.636 E.01692
G1 X113.3 Y117.313 E.01611
G1 X113.058 Y116.919 E.01668
G1 X112.924 Y116.537 E.01462
G1 X112.858 Y116.053 E.01764
G1 X112.875 Y115.687 E.01323
G1 X112.981 Y115.269 E.01557
G1 X113.204 Y114.821 E.01807
G1 X113.416 Y114.547 E.01252
G1 X113.768 Y114.239 E.0169
G1 X114.152 Y114.025 E.01586
G1 X114.481 Y113.915 E.01252
G1 X114.938 Y113.851 E.01665
G1 X115.26 Y113.867 E.01166
G1 X115.717 Y113.974 E.01696
G1 X116.14 Y114.178 E.01694
G1 X116.486 Y114.448 E.01583
G1 X116.716 Y114.707 E.01252
G1 X116.953 Y115.102 E.01665
G1 X117.065 Y115.405 E.01166
G1 X117.145 Y115.859 E.01665
G1 X117.141 Y116.182 E.01166
G1 X117.051 Y116.643 E.01696
G1 X116.878 Y117.037 E.01553
;WIPE_START
G1 X116.541 Y117.494 E-.1704
G1 X116.355 Y117.668 E-.0763
G1 X115.961 Y117.922 E-.14068
G1 X115.519 Y118.085 E-.14127
G1 X115.284 Y118.118 E-.07136
;WIPE_END
G1 Z.4 F30000
G1 X102.391 Y117.583 Z.4
G1 Z.2
G1 E.6 F2400
;TYPE:Inner wall
G1 F3600
G1 X102.263 Y117.375 E.00881
;WIDTH:0.548125
G1 X102.02 Y116.795 E.02509
;WIDTH:0.580637
G1 X101.979 Y116.694 E.00463
;WIDTH:0.613148
G1 X101.938 Y116.593 E.00491
;WIDTH:0.59256
G1 X101.908 Y115.705 E.03859
;WIDTH:0.613955
G1 X101.933 Y115.448 E.01161
G1 X102.019 Y115.229 E.01061
;WIDTH:0.57597
G1 X102.104 Y115.01 E.0099
;WIDTH:0.537985
G1 X102.189 Y114.791 E.00919
;WIDTH:0.499999
G1 X102.492 Y114.242 E.02263
G1 X102.806 Y113.867 E.01769
G1 X103.318 Y113.443 E.02396
G1 X103.85 Y113.163 E.02174
;WIDTH:0.541552
G1 X104.002 Y113.093 E.00658
;WIDTH:0.583105
G1 X104.154 Y113.023 E.00713
;WIDTH:0.624658
G1 X104.306 Y112.954 E.00768
G1 X104.929 Y112.896 E.02877
;WIDTH:0.605659
G1 X105.47 Y112.923 E.02408
G1 X105.682 Y112.998 E.00998
;WIDTH:0.570439
G1 X105.894 Y113.072 E.00935
;WIDTH:0.535219
G1 X106.105 Y113.147 E.00873
;WIDTH:0.499999
G1 X106.696 Y113.452 E.024
G1 X107.162 Y113.832 E.02171
G1 X107.497 Y114.231 E.01879
G1 X107.821 Y114.815 E.02415
G1 X107.996 Y115.358 E.02061
G1 X108.059 Y115.897 E.01958
G1 X108.033 Y116.436 E.01949
G1 X107.909 Y116.95 E.01906
G1 X107.714 Y117.417 E.0183
G1 X107.361 Y117.947 E.023
G1 X106.881 Y118.414 E.02417
G1 X106.311 Y118.765 E.02415
;WIDTH:0.54155
G1 X106.105 Y118.859 E.00891
;WIDTH:0.583101
G1 X105.9 Y118.952 E.00965
;WIDTH:0.624652
G1 X105.694 Y119.046 E.01039
G1 X105.071 Y119.104 E.02877
;WIDTH:0.605659
G1 X104.53 Y119.077 E.02408
G1 X104.318 Y119.002 E.00998
;WIDTH:0.570439
G1 X104.106 Y118.928 E.00935
;WIDTH:0.535219
M73 P2 R7
G1 X103.894 Y118.853 E.00873
;WIDTH:0.499999
G1 X103.301 Y118.545 E.02417
G1 X102.844 Y118.177 E.02115
G1 X102.52 Y117.792 E.01818
G1 X102.412 Y117.617 E.00745
G1 X102.778 Y117.356 F30000
G1 F3600
G1 X102.611 Y117.037 E.013
G1 X102.449 Y116.537 E.01898
G1 X102.405 Y116.24 E.01084
G1 X102.411 Y115.721 E.01874
G1 X102.541 Y115.145 E.02132
G1 X102.787 Y114.627 E.02069
G1 X103.11 Y114.208 E.01911
G1 X103.543 Y113.841 E.0205
G1 X104.001 Y113.594 E.0188
G1 X104.414 Y113.462 E.01565
G1 X104.929 Y113.394 E.01876
G1 X105.36 Y113.421 E.01556
G1 X105.911 Y113.56 E.02055
G1 X106.418 Y113.815 E.02047
G1 X106.824 Y114.14 E.01877
G1 X107.106 Y114.469 E.01565
G1 X107.389 Y114.963 E.02055
G1 X107.548 Y115.447 E.01842
G1 X107.599 Y115.953 E.01833
G1 X107.551 Y116.508 E.02012
G1 X107.425 Y116.951 E.01664
G1 X107.233 Y117.34 E.01565
G1 X106.889 Y117.793 E.02056
G1 X106.454 Y118.161 E.02057
G1 X105.973 Y118.417 E.01966
G1 X105.586 Y118.538 E.01466
G1 X105.071 Y118.606 E.01876
G1 X104.64 Y118.579 E.01556
G1 X104.089 Y118.44 E.02055
G1 X103.58 Y118.183 E.02057
G1 X103.173 Y117.86 E.01876
G1 X102.8 Y117.397 E.02146
G1 X102.797 Y117.391 E.00024
G1 X103.178 Y117.135 F30000
;TYPE:Outer wall
G1 F3600
G1 X103.044 Y116.889 E.01011
G1 X102.898 Y116.451 E.01665
G1 X102.857 Y116.173 E.01016
G1 X102.875 Y115.687 E.01757
G1 X103.002 Y115.209 E.01787
G1 X103.216 Y114.801 E.01662
G1 X103.417 Y114.547 E.01168
G1 X103.768 Y114.239 E.0169
G1 X104.152 Y114.025 E.01586
G1 X104.481 Y113.915 E.01252
G1 X104.938 Y113.851 E.01665
G1 X105.26 Y113.867 E.01166
G1 X105.717 Y113.974 E.01696
G1 X106.14 Y114.178 E.01694
G1 X106.486 Y114.448 E.01583
G1 X106.716 Y114.707 E.01252
G1 X106.956 Y115.11 E.01696
G1 X107.102 Y115.548 E.01664
G1 X107.142 Y115.936 E.01409
G1 X107.108 Y116.394 E.01658
G1 X107.01 Y116.76 E.0137
G1 X106.861 Y117.074 E.01252
G1 X106.584 Y117.453 E.01696
G1 X106.23 Y117.762 E.01697
G1 X105.826 Y117.985 E.01666
G1 X105.519 Y118.085 E.01166
G1 X105.062 Y118.149 E.01665
G1 X104.74 Y118.133 E.01166
G1 X104.283 Y118.026 E.01696
G1 X103.859 Y117.821 E.01697
G1 X103.491 Y117.53 E.01697
G1 X103.199 Y117.173 E.01664
G1 X103.197 Y117.17 E.00013
;WIPE_START
G1 X103.044 Y116.889 E-.09603
G1 X102.898 Y116.451 E-.13832
G1 X102.857 Y116.173 E-.08439
G1 X102.875 Y115.687 E-.14597
G1 X102.991 Y115.251 E-.1353
;WIPE_END
G1 Z.4 F30000
G1 X103.89 Y119.549 Z.4
G1 Z.2
G1 E.6 F2400
;TYPE:Bottom surface
;WIDTH:0.544944
G1 F5975.81
G1 X101.659 Y117.317 E.12515
G1 X101.657 Y118.025 E.02808
G1 X102.975 Y119.343 E.0739
G1 X102.265 Y119.343 E.02815
G1 X101.451 Y118.53 E.04562
;WIPE_START
G1 X102.265 Y119.343 E-.34514
G1 X102.975 Y119.343 E-.21299
G1 X102.876 Y119.244 E-.04187
;WIPE_END
G1 Z.4 F30000
G1 X103.022 Y112.451 Z.4
G1 Z.2
G1 E.6 F2400
;WIDTH:0.547649
G1 F5943.784
G1 X103.511 Y112.941 E.0276
G1 X103.063 Y113.206 E.02077
G1 X102.513 Y112.657 E.03097
G1 X101.8 Y112.657 E.02846
G1 X102.671 Y113.528 E.0491
G1 X102.326 Y113.897 E.02014
G1 X101.657 Y113.228 E.03771
G1 X101.657 Y113.942 E.02846
G1 X102.042 Y114.327 E.02171
G1 X101.881 Y114.64 E.01404
G1 X101.815 Y114.814 E.00741
G1 X101.451 Y114.45 E.02053
;WIPE_START
G1 X101.815 Y114.814 E-.15444
G1 X101.881 Y114.64 E-.05577
G1 X102.042 Y114.327 E-.10564
G1 X101.657 Y113.942 E-.16335
G1 X101.657 Y113.539 E-.12079
;WIPE_END
G1 Z.4 F30000
G1 X113.725 Y113.064 Z.4
G1 Z.2
G1 E.6 F2400
;WIDTH:0.50469
G1 F6300
G1 X113.318 Y112.657 E.02099
G1 X112.665 Y112.657 E.02382
G1 X113.152 Y113.143 E.02509
G1 X112.783 Y113.427 E.01699
G1 X112.012 Y112.657 E.03974
G1 X111.359 Y112.657 E.02382
G1 X112.451 Y113.748 E.05629
G1 X112.166 Y114.117 E.01699
G1 X110.706 Y112.657 E.07533
G1 X110.053 Y112.657 E.02382
G1 X111.933 Y114.537 E.09699
G1 X111.879 Y114.645 E.00441
G1 X111.752 Y115.008 E.01404
G1 X109.4 Y112.657 E.1213
G1 X108.747 Y112.657 E.02382
G1 X111.629 Y115.539 E.14866
M73 P3 R7
G1 X111.605 Y116.167 E.02295
G1 X108.094 Y112.657 E.18109
G1 X107.441 Y112.657 E.02382
G1 X111.729 Y116.945 E.2212
G1 X111.889 Y117.382 E.01698
G1 X112.009 Y117.62 E.00971
G1 X112.238 Y117.985 E.01573
G1 X112.424 Y118.223 E.01101
G1 X112.71 Y118.517 E.01497
G1 X112.946 Y118.713 E.01119
G1 X113.306 Y118.951 E.01573
G1 X113.535 Y119.074 E.0095
G1 X113.804 Y119.188 E.01064
G1 X114.038 Y119.263 E.00899
G1 X114.109 Y119.324 E.00339
G1 X114.035 Y119.343 E.00278
G1 X113.474 Y119.343 E.02045
G1 X106.788 Y112.657 E.34491
G1 X106.135 Y112.657 E.02382
G1 X106.37 Y112.892 E.01212
G1 X106.637 Y113.017 E.01076
G1 X106.899 Y113.176 E.01119
G1 X107.224 Y113.425 E.01492
G1 X107.412 Y113.598 E.0093
G1 X107.623 Y113.83 E.01145
G1 X107.786 Y114.047 E.00992
G1 X108.011 Y114.416 E.01575
G1 X108.115 Y114.637 E.00891
G1 X112.821 Y119.343 E.24276
G1 X112.168 Y119.343 E.02382
G1 X108.368 Y115.544 E.196
G1 X108.399 Y115.757 E.00787
G1 X108.388 Y116.216 E.01673
G1 X111.515 Y119.343 E.16133
G1 X110.862 Y119.343 E.02382
G1 X108.305 Y116.786 E.13191
G1 X108.236 Y117.054 E.01008
G1 X108.152 Y117.286 E.00901
G1 X110.209 Y119.343 E.10612
G1 X109.556 Y119.343 E.02382
G1 X107.933 Y117.721 E.08369
G1 X107.667 Y118.108 E.01713
G1 X108.903 Y119.343 E.06373
G1 X108.25 Y119.343 E.02382
G1 X107.355 Y118.449 E.04613
G1 X107.001 Y118.748 E.0169
G1 X107.597 Y119.343 E.03072
G1 X106.944 Y119.343 E.02382
G1 X106.598 Y118.997 E.01784
G1 X106.164 Y119.217 E.01772
G1 X106.496 Y119.549 E.01712
;WIPE_START
G1 X106.164 Y119.217 E-.14081
G1 X106.598 Y118.997 E-.14576
G1 X106.944 Y119.343 E-.14674
G1 X107.499 Y119.343 E-.16669
;WIPE_END
G1 Z.4 F30000
G1 X118.549 Y117.668 Z.4
G1 Z.2
G1 E.6 F2400
;WIDTH:0.538403
G1 F6054.698
G1 X118.15 Y117.269 E.02206
G1 X118.041 Y117.527 E.01097
G1 X117.921 Y117.741 E.00957
G1 X118.343 Y118.163 E.02337
G1 X118.343 Y118.864 E.02743
G1 X117.634 Y118.154 E.03927
G1 X117.293 Y118.515 E.0194
G1 X118.122 Y119.343 E.04586
G1 X117.421 Y119.343 E.02743
G1 X116.896 Y118.818 E.02909
G1 X116.693 Y118.951 E.00949
G1 X116.449 Y119.072 E.01066
G1 X116.926 Y119.549 E.0264
;WIPE_START
G1 X116.449 Y119.072 E-.20236
G1 X116.693 Y118.951 E-.08168
G1 X116.896 Y118.818 E-.07277
G1 X117.421 Y119.343 E-.22296
G1 X117.489 Y119.343 E-.02023
;WIPE_END
G1 Z.4 F30000
G1 X117.529 Y112.451 Z.4
G1 Z.2
G1 E.6 F2400
;WIDTH:0.544946
G1 F5975.786
G1 X118.343 Y113.265 E.04563
G1 X118.343 Y113.975 E.02815
G1 X117.025 Y112.657 E.07391
M73 P4 R7
G1 X116.315 Y112.657 E.02816
G1 X118.549 Y114.891 E.12527
;WIPE_START
G1 X117.135 Y113.476 E-.6
;WIPE_END
